dist/svg/u1F4A2.svg

<?xml version="1.0" encoding="UTF-8"?><svg id="a" xmlns="http://www.w3.org/2000/svg" viewBox="0 0 40 40"><g><path d="M20.109,33.444c-3.865,0-6.881,.742-8.939,1.49-1.068,.388-1.941-1.022-1.245-2.002,1.858-2.618,5.132-5.735,10.184-5.735s8.326,3.117,10.184,5.735c.696,.98-.178,2.39-1.245,2.002-2.058-.748-5.074-1.49-8.939-1.49Z" fill="#ef4452"/><path d="M33.444,19.891c0,3.865,.742,6.881,1.49,8.939,.388,1.068-1.022,1.941-2.002,1.245-2.618-1.858-5.735-5.132-5.735-10.184,0-5.053,3.117-8.326,5.735-10.184,.98-.696,2.39,.178,2.002,1.245-.748,2.058-1.49,5.074-1.49,8.939Z" fill="#ef4452"/><path d="M19.891,6.556c3.865,0,6.881-.742,8.939-1.49,1.068-.388,1.941,1.022,1.245,2.002-1.858,2.618-5.132,5.735-10.184,5.735-5.053,0-8.326-3.117-10.184-5.735-.696-.98,.178-2.39,1.245-2.002,2.058,.748,5.074,1.49,8.939,1.49Z" fill="#ef4452"/><path d="M6.556,20.109c0-3.865-.742-6.881-1.49-8.939-.388-1.068,1.022-1.941,2.002-1.245,2.618,1.858,5.735,5.132,5.735,10.184s-3.117,8.326-5.735,10.184c-.98,.696-2.39-.178-2.002-1.245,.748-2.058,1.49-5.074,1.49-8.939Z" fill="#ef4452"/></g><rect y="0" width="40" height="40" transform="translate(40 40) rotate(-180)" fill="none" opacity=".1"/></svg>

<svg id="Layer_1" data-name="Layer 1" xmlns="http://www.w3.org/2000/svg" viewBox="0 0 40 40"><defs><style>.cls-1{fill:#ef4452;}.cls-2{fill:none;opacity:0.1;}</style></defs><path class="cls-1" d="M20.109,33.444a26.163,26.163,0,0,0-8.939,1.49c-1.067.388-1.941-1.022-1.245-2,1.858-2.618,5.132-5.735,10.184-5.735s8.326,3.117,10.185,5.735c.7.98-.178,2.39-1.246,2A26.154,26.154,0,0,0,20.109,33.444Z"/><path class="cls-1" d="M33.444,19.891a26.163,26.163,0,0,0,1.49,8.939c.388,1.067-1.022,1.941-2,1.245C30.314,28.217,27.2,24.943,27.2,19.891s3.117-8.326,5.735-10.185c.98-.7,2.39.178,2,1.246A26.154,26.154,0,0,0,33.444,19.891Z"/><path class="cls-1" d="M19.891,6.556a26.163,26.163,0,0,0,8.939-1.49c1.067-.388,1.941,1.022,1.245,2C28.217,9.686,24.943,12.8,19.891,12.8S11.565,9.686,9.706,7.068c-.7-.98.178-2.39,1.246-2A26.154,26.154,0,0,0,19.891,6.556Z"/><path class="cls-1" d="M6.556,20.109a26.163,26.163,0,0,0-1.49-8.939c-.388-1.067,1.022-1.941,2-1.245C9.686,11.783,12.8,15.057,12.8,20.109S9.686,28.435,7.068,30.294c-.98.7-2.39-.178-2-1.246A26.154,26.154,0,0,0,6.556,20.109Z"/><rect class="cls-2" width="40" height="40" transform="translate(40 40) rotate(-180)"/></svg>
